tela-icon-theme/src/scalable/apps/com.usebottles.bottles.svg

<svg width="64" height="64" version="1.1" viewBox="0 0 64 64" xmlns="http://www.w3.org/2000/svg">
 <path d="m27.273 12s-2.7734 6.8047-2.7734 7.2578v38.742h15v-38.744c0 0.001953-2.5-7.2559-2.5-7.2559z" fill="#ebeaea" stroke-width=".5"/>
 <path d="m27 12s-2.5 6.8047-2.5 7.2559h15c0-0.24414-2.5-7.2559-2.5-7.2559z" fill="#e3e2df" stroke-width=".5"/>
 <path d="m6 23.947c0.24805 0.0078 18.5 0 18.5 0 0-6.4082-5.9219-11.947-6-15.947h-6.5c0 4-6.002 9.5391-6 15.947z" fill="#deddda"/>
 <path d="m27 9.4707v2.5293h10v-2.5293z" fill="#297bde" stroke-width=".5"/>
 <path d="m32 28.018c-3.75 0-3.75 4.7285-3.75 4.7285h-3.75v7.2344h15v-7.2344h-3.75s0-4.7285-3.75-4.7285zm0 1s2.7266 3.3262 1.7285 4.9707c-0.99805 1.6445-2.4609 1.6445-3.459 0s1.7305-4.9707 1.7305-4.9707z" fill="#1f74da" stroke-width=".5"/>
 <path d="m10.703 12-0.0059 0.0059c-1.7656 3.4023-4.6992 7.457-4.6972 11.939v30.055c0 0.13867 0.00781 0.27539 0.01953 0.41016s0.03125 0.26758 0.054688 0.39844c0.02539 0.13086 0.056641 0.25781 0.091797 0.38476 0.035155 0.125 0.078125 0.2461 0.125 0.36524 0.046875 0.1211 0.099609 0.23828 0.15625 0.35156 0.05664 0.11328 0.11914 0.22266 0.18555 0.33008 0.066407 0.10547 0.13672 0.20703 0.21289 0.30664s0.15625 0.19336 0.23828 0.28516c0.083984 0.08984 0.17383 0.17578 0.26367 0.25586 0.091797 0.08203 0.1875 0.1582 0.28711 0.23047 0.099609 0.07227 0.20117 0.13867 0.30469 0.20117 0.10547 0.06055 0.21484 0.11719 0.32617 0.16797 0.11133 0.04885 0.22461 0.09375 0.3418 0.13282 0.058593 0.01955 0.11719 0.0371 0.17578 0.05468 0.058594 0.0156 0.11914 0.03125 0.17969 0.04295 0.0625 0.01365 0.12109 0.0254 0.18359 0.03515 0.0625 0.0117 0.12305 0.01955 0.18555 0.0254 0.064454 0.0078 0.12695 0.01365 0.18945 0.0156 0.064453 4e-3 0.12891 0.0058 0.19141 0.0058h14.787v-34.055c0-4.4824-2.8945-8.5371-4.6621-11.939l-0.005859-0.00586z" fill="#ffbe6f" stroke-width=".5"/>
 <path d="m43.5 18.473c-2.127 1.0391-4 3.3555-4 5.7637v33.764h14.402c2.2715-0.009765 4.0977-1.8828 4.0977-4.207v-29.557c0-2.4141-1.8652-4.7266-4-5.7637z" fill="#ee393e" stroke-width=".5"/>
 <path d="m12 6h6.5v2h-6.5z" fill="#57e389" stroke-width=".5"/>
 <path d="m43.5 17.473h10.5v1.0156h-10.5z" fill="#67656c" stroke-width=".5"/>
 <path d="m43.5 14h10.5v3.4727h-10.5z" fill="#cecdca" stroke-width=".5"/>
 <path d="m52 49.746h6v2.2539h-6z" fill="#cac9c6" stroke-width=".5"/>
 <path d="m15.25 27c-2.7617 0-5 2.2383-5 5s2.2383 5 5 5 5-2.2383 5-5-2.2383-5-5-5z" fill="#33d17a" fill-opacity=".8549"/>
</svg>

<svg xmlns="http://www.w3.org/2000/svg" width="64" height="64"><path fill="#ebeaea" d="M27.273 12S24.5 18.805 24.5 19.258V58h15V19.256L37 12z"/><path fill="#e3e2df" d="M27 12s-2.5 6.805-2.5 7.256h15C39.5 19.012 37 12 37 12z"/><path fill="#deddda" d="M6 23.947c.248.008 18.5 0 18.5 0C24.5 17.539 18.578 12 18.5 8H12c0 4-6.002 9.54-6 15.947z"/><path fill="#297bde" d="M27 9.47V12h10V9.47z"/><path fill="#1f74da" d="M32 28.018c-3.75 0-3.75 4.729-3.75 4.729H24.5v7.234h15v-7.235h-3.75s0-4.728-3.75-4.728zm0 1s2.727 3.326 1.728 4.97c-.998 1.645-2.46 1.645-3.459 0S32 29.019 32 29.019z"/><path fill="#ffbe6f" d="m10.703 12-.006.006C8.931 15.408 5.997 19.463 6 23.945V54a4.728 4.728 0 0 0 .074.808c.026.131.057.258.092.385a4.08 4.08 0 0 0 .918 1.639 4.062 4.062 0 0 0 .55.486c.1.073.202.139.305.201.106.061.215.118.327.168.11.05.224.094.341.133.059.02.118.037.176.055.059.016.12.031.18.043a3.041 3.041 0 0 0 .369.06 3.104 3.104 0 0 0 .38.021H24.5V23.946c0-4.483-2.895-8.537-4.662-11.94L19.832 12z"/><path fill="#ee393e" d="M43.5 18.473c-2.127 1.04-4 3.356-4 5.764V58h14.402C56.174 57.99 58 56.118 58 53.794V24.237c0-2.414-1.865-4.727-4-5.764z"/><path fill="#57e389" d="M12 6h6.5v2H12z"/><path fill="#67656c" d="M43.5 17.473H54v1.016H43.5z"/><path fill="#cecdca" d="M43.5 14H54v3.473H43.5z"/><path fill="#cac9c6" d="M52 49.746h6V52h-6z"/><path fill="#33d17a" fill-opacity=".855" d="M15.25 27a5 5 0 1 0 0 10 5 5 0 0 0 0-10z"/></svg>
